dist/img/main/cards/development-icon.svg

<svg width="28" height="28" fill="none" xmlns="http://www.w3.org/2000/svg"><path d="M6 2v4H2V2h4ZM0 0v8h8V0H0Zm16 5v4h-4V5h4Zm-6-2v8h8V3h-8ZM6 14v4H2v-4h4Zm-6-2v8h8v-8H0Z" fill="#fff"/><path d="M20 8v6h-6v6H8v8h20V8h-8Zm-4 8h4v4h-4v-4Zm-2 10h-4v-4h4v4Zm6 0h-4v-4h4v4Zm6 0h-4v-4h4v4Zm0-6h-4v-4h4v4Zm-4-6v-4h4v4h-4Z" fill="#fff"/></svg>

<svg width="28" height="28" viewBox="0 0 28 28" fill="none" xmlns="http://www.w3.org/2000/svg">
<path d="M6 2V6H2V2H6ZM0 0V8H8V0H0ZM16 5V9H12V5H16ZM10 3V11H18V3H10ZM6 14V18H2V14H6ZM0 12V20H8V12H0Z" fill="white"/>
<path d="M20 8V14H14V20H8V28H28V8H20ZM16 16H20V20H16V16ZM14 26H10V22H14V26ZM20 26H16V22H20V26ZM26 26H22V22H26V26ZM26 20H22V16H26V20ZM22 14V10H26V14H22Z" fill="white"/>
</svg>
